public/svg/profiles/kickstarter.svg

<svg width="50px" height="50px" viewBox="724 224 50 50" version="1.1" xmlns="http://www.w3.org/2000/svg" xmlns:xlink="http://www.w3.org/1999/xlink">
    <!-- Generator: Sketch 42 (36781) - http://www.bohemiancoding.com/sketch -->
    <desc>Created with Sketch.</desc>
    <defs></defs>
    <g id="link-kickstarter" stroke="none" stroke-width="1" fill="none" fill-rule="evenodd" transform="translate(724.000000, 224.000000)">
        <g id="Group" fill-rule="nonzero">
            <rect id="Rectangle-path" fill="#0F2105" x="0" y="0" width="50" height="50" rx="25"></rect>
            <path d="M24.0697368,21.6486842 L27.9315789,16.0552632 C28.6605263,15 29.6026316,14.4736842 30.7592105,14.4736842 C31.7013158,14.4736842 32.5157895,14.8078947 33.2065789,15.4776316 C33.8947368,16.1460526 34.2394737,16.9460526 34.2394737,17.8789474 C34.2394737,18.5671053 34.0578947,19.1763158 33.6921053,19.7026316 L30.2105263,24.7644737 L34.4671053,30.1605263 C34.8934211,30.6973684 35.1052632,31.3263158 35.1052632,32.0460526 C35.1052632,32.9986842 34.7723684,33.8157895 34.1026316,34.5 C33.4342105,35.1842105 32.6223684,35.5263158 31.6710526,35.5263158 C30.6263158,35.5263158 29.8315789,35.1868421 29.2842105,34.5078947 L24.0697368,28.0026316 L24.0697368,31.5894737 C24.0697368,32.6131579 23.8921053,33.4092105 23.5381579,33.9763158 C22.8894737,35.0092105 21.9460526,35.5263158 20.7105263,35.5263158 C19.5855263,35.5263158 18.7144737,35.1460526 18.0960526,34.3868421 C17.5184211,33.6868421 17.2302632,32.7592105 17.2302632,31.6052632 L17.2302632,18.3026316 C17.2302632,17.2092105 17.5236842,16.3065789 18.1118421,15.5973684 C18.7302632,14.8473684 19.5802632,14.4723684 20.6644737,14.4723684 C21.6986842,14.4723684 22.5592105,14.8473684 23.2486842,15.5973684 C23.6342105,16.0131579 23.8776316,16.4328947 23.9789474,16.8592105 C24.0394737,17.1223684 24.0710526,17.6131579 24.0710526,18.3328947 L24.0710526,21.6473684" id="Shape" fill="#56B368"></path>
        </g>
    </g>
</svg>

<svg width="50" height="50" viewBox="724 224 50 50" xmlns="http://www.w3.org/2000/svg"><g fill-rule="nonzero" transform="translate(724 224)" fill="none"><rect fill="#0F2105" width="50" height="50" rx="25"/><path d="M24.07 21.65l3.862-5.595c.73-1.055 1.67-1.58 2.827-1.58.94 0 1.756.333 2.447 1.003.688.668 1.032 1.468 1.032 2.4 0 .69-.182 1.298-.548 1.825l-3.48 5.06 4.255 5.398c.426.537.638 1.166.638 1.886 0 .953-.333 1.77-1.002 2.454-.67.684-1.48 1.026-2.432 1.026-1.044 0-1.838-.34-2.386-1.018l-5.214-6.505v3.586c0 1.023-.178 1.82-.532 2.386-.65 1.033-1.592 1.55-2.827 1.55-1.124 0-1.996-.38-2.614-1.14-.578-.7-.866-1.627-.866-2.78V18.302c0-1.094.294-1.996.882-2.706.618-.75 1.468-1.125 2.552-1.125 1.035 0 1.895.375 2.585 1.125.384.416.628.836.73 1.262.06.262.09.753.09 1.473v3.314" fill="#56B368"/></g></svg>
